icon/cg/awards.svg

<svg viewBox="0 0 24 24" fill="none" xmlns="http://www.w3.org/2000/svg" height="1em" width="1em">
  <path fill-rule="evenodd" clip-rule="evenodd" d="M19 9C19 11.3787 17.8135 13.4804 16 14.7453V22H13.4142L12 20.5858L10.5858 22H8V14.7453C6.18652 13.4804 5 11.3787 5 9C5 5.13401 8.13401 2 12 2C15.866 2 19 5.13401 19 9ZM17 9C17 11.7614 14.7614 14 12 14C9.23858 14 7 11.7614 7 9C7 6.23858 9.23858 4 12 4C14.7614 4 17 6.23858 17 9ZM10 19.7573L12 17.7573L14 19.7574V15.7101C13.3663 15.8987 12.695 16 12 16C11.305 16 10.6337 15.8987 10 15.7101V19.7573Z" fill="currentColor"/>
</svg>

<svg width="24" height="24" fill="none" xmlns="http://www.w3.org/2000/svg"><path fill-rule="evenodd" clip-rule="evenodd" d="M19 9a6.992 6.992 0 0 1-3 5.745V22h-2.586L12 20.586 10.586 22H8v-7.255A7 7 0 1 1 19 9Zm-2 0A5 5 0 1 1 7 9a5 5 0 0 1 10 0Zm-7 10.757 2-2 2 2V15.71a7.001 7.001 0 0 1-2 .29 7.001 7.001 0 0 1-2-.29v4.047Z" fill="currentColor"/></svg>
